modules/map-icons/icons/lodging.svg

<svg version="1.2" baseProfile="tiny" xmlns="http://www.w3.org/2000/svg" width="50" height="50" viewBox="0 0 50 50" overflow="inherit"><path d="M46 32v8h4v-12h-46v-16.34c0-1.123-.869-2.042-2-2.042-1.127 0-2 .918-2 2.042v28.34h4v-8h42zm-35.67-12.148c2.041 0 3.687-1.653 3.687-3.694 0-2.027-1.646-3.675-3.687-3.675-2.038 0-3.683 1.647-3.683 3.675 0 2.04 1.645 3.694 3.683 3.694zm39.67 5.148l-.014-4.871c-.013-1.606-1.36-2.618-2.939-2.809l-28.957-2.833-.215-.009c-1.006 0-1.875.834-1.875 1.835v5.687h-7.453c-1.011 0-1.826.5-1.826 1.499 0 1.015.815 1.501 1.826 1.501h41.453z"/></svg>

<svg version="1.2" baseProfile="tiny" xmlns="http://www.w3.org/2000/svg" width="50" height="50" viewBox="0 0 50 50" overflow="inherit"><path d="M46 32v8h4V28H4V11.66c0-1.123-.869-2.042-2-2.042-1.127 0-2 .918-2 2.042V40h4v-8h42zM10.33 19.852a3.687 3.687 0 0 0 3.687-3.694 3.68 3.68 0 0 0-3.687-3.675 3.678 3.678 0 0 0-3.683 3.675 3.686 3.686 0 0 0 3.683 3.694zM50 25l-.014-4.871c-.013-1.606-1.36-2.618-2.939-2.809L18.09 14.487l-.215-.009c-1.006 0-1.875.834-1.875 1.835V22H8.547c-1.011 0-1.826.5-1.826 1.499 0 1.015.815 1.501 1.826 1.501H50z"/></svg>
